package/converter/svg/solid/circle-down.svg

<svg xmlns="http://www.w3.org/2000/svg" viewBox="0 0 512 512"><!-- Font Awesome Pro 6.0.0-alpha2 by @fontawesome - https://fontawesome.com License - https://fontawesome.com/license (Commercial License) --><path d="M256 496C388.58 496 496 388.58 496 256S388.58 16 256 16C123.418 16 16 123.42 16 256S123.418 496 256 496ZM129.219 265.875C131.688 259.891 137.531 256 144 256H208V160C208 142.327 222.327 128 240 128H272C289.673 128 304 142.327 304 160V256H368C374.469 256 380.312 259.891 382.781 265.875C385.266 271.859 383.891 278.734 379.313 283.313L267.313 395.313C261.065 401.56 250.935 401.56 244.688 395.313L132.688 283.313C128.109 278.734 126.734 271.859 129.219 265.875Z"/></svg>

<svg xmlns="http://www.w3.org/2000/svg" viewBox="0 0 512 512"><!--! Font Awesome Pro 6.6.0 by @fontawesome - https://fontawesome.com License - https://fontawesome.com/license (Commercial License) Copyright 2024 Fonticons, Inc. --><path d="M256 0a256 256 0 1 0 0 512A256 256 0 1 0 256 0zM244.7 395.3l-112-112c-4.6-4.6-5.9-11.5-3.5-17.4s8.3-9.9 14.8-9.9l64 0 0-96c0-17.7 14.3-32 32-32l32 0c17.7 0 32 14.3 32 32l0 96 64 0c6.5 0 12.3 3.9 14.8 9.9s1.1 12.9-3.5 17.4l-112 112c-6.2 6.2-16.4 6.2-22.6 0z"/></svg>
